icons/1_Primary/Luogu.svg

<svg xmlns="http://www.w3.org/2000/svg" width="1024" height="1024" fill="none">
   <g clip-path="url(#a)">
      <path fill="#9ABEFF" d="M512 1024c282.77 0 512-229.23 512-512S794.77 0 512 0 0 229.23 0 512s229.23 512 512 512Z"/>
      <path fill="#fff" d="M163.54 490.24a26.548 26.548 0 0 1-3.39-23.83c2.49-7.07 6-14 11.26-19.38 7.95-8.05 17.29-14.67 24.49-23.45 11.82-14.09 21.84-29.57 33.62-43.7 6.19-7.66 13.68-14.81 23.47-17.4a63.397 63.397 0 0 1 9.1.13c1.48.49 3 1 4.48 1.38 6.49 3.39 8.66 11.11 8.48 17.93-.58 9.7-4.8 18.68-9 27.27-7.25 14.71-18.95 26.49-30.34 38-7.58 7.63-17.42 12.65-24.74 20.53-4 4.27-1.76 10.73 1.46 14.7 8.28 5.15 18.45 8 24.61 16 4.22 5.64 7.92 11.89 9.66 18.75 1.7 7.41-4.64 13.42-10.71 16.37-8.8 3.3-18.51 1.56-27.42-.44-5.43-1.24-9-5.83-13-9.38-11.44-10.31-23.06-20.79-32.03-33.48ZM640 543.33c-2 2.25-4.12 4.56-7 5.68-10.83 4.74-23.26 9.81-35 4.93 1.09 4.06 2 8.29 1.32 12.52-1.4 11.25-3.45 22.4-5 33.64 11 2.91 11.37 20.93 1.15 25.11-14.2.7-28.35 1.92-42.58 1.89-9.69 1.16-19.46 1.12-29.21 1.4-1.92 8.42-11.31 11-18.88 9.7-2.61-1.22-5.5-2.3-7.13-4.81-2.66-3.87-2.34-8.78-3-13.21-1.86-20.35-3.9-40.69-5.78-61a16.368 16.368 0 0 1 1-6.63c-7.17 4.2-15.34 9.29-24 7.39-7.31-3.27-7.95-14.76-.58-18.43a296.523 296.523 0 0 0 57-41.94c1-1.29 4-2.86 2.14-4.67a294.428 294.428 0 0 1-18.34-21.07l-2.08.26c-8.28 7.76-16.13 16.82-27 21-6.42 3.1-14.89-2.92-13.87-10 .31-5.92 5.92-9.23 9.46-13.27 14.57-14.45 26.49-31.42 36.33-49.36 2.94-5.6 5.56-12.92 12.57-14.33 3.25-1.26 6.53.19 9.72.92 3 1.93 6.36 4 7.5 7.63.61 2.6.38 5.29.38 8 6.51-1.82 13.32-.87 19.94-1.9 7.12-1.13 14.38-.79 21.51-2 7.1.16 16.61 1 19.52 8.78 2.49 8.13-1.57 16.21-5.28 23.25-9 16-20.27 30.59-32.54 44.17 18.73 15.08 40.1 26.59 62 36.23 5.73 2.64 12.67 4.08 15.73 10.12Zm-98.61-64.07a129.908 129.908 0 0 0 20.11-25c.87-2.21 3.83-5.8.42-7.23-12.65.63-25.31 2.63-38 2.94-1.83 2.47-3.62 5-5.36 7.5 7.23 7.53 14.5 15.33 22.82 21.79h.01Zm21.93 89.63c-8.16 1.58-16.53.83-24.71 2.22-6.19.64-12.41.58-18.61.79-.92 10.58 1.48 21.15 1.78 31.74 14.92-.1 29.73-1.95 44.66-2 1.18-8.81 2-17.68 2.91-26.52.65-3.6-2.25-7.12-6.04-6.24l.01.01Zm19.36-25.34c-.57-.31-1.73-.93-2.3-1.25-12.05-9.13-24.3-18-35.87-27.75a273.17 273.17 0 0 1-41.38 30.38c3.57.58 7.16 1.32 10.27 3.26 23.09-1.55 46.13-3.9 69.27-4.64h.01Zm218.71-107.4c11 10.77 21.47 22.11 31.76 33.57 4.22 5.07 11 5.41 17.09 4.3 5.21-2.86 10.43-7.34 11-13.67.83-6.54-2.79-12.66-7.54-16.85-11.57-10.5-24.39-19.5-37.46-28.06-4-2.44-8-5.7-13-5.44-6.26-.58-11.28 5.29-11.72 11.15.34 6.46 5.71 10.73 9.87 15ZM682.68 485.8c9 2.06 16.42-4.65 23.29-9.35 12.21-9.93 23.93-20.7 33.69-33.09 3.87-5.51 8.83-12.08 6.51-19.19-2.74-9.28-13.83-14-22.67-10.57-4.38 2-7 6.18-9.5 10.06a257.436 257.436 0 0 1-27.51 34.86c-3.83 4.4-8.3 8.52-10.49 14-1.95 5.4 1.56 11.41 6.68 13.28ZM413 438.83c7 6 14.13 11.89 20.9 18.16 5.89 5.84 17 6.44 22.5-.16 6.64-6.6 5.91-19.19-2.43-24.1-11.61-7-24-15.18-38-15.12-3.71 1.92-7.33 4.88-8 9.23-1.05 4.66 1.51 9.16 5.03 11.99Zm475.8 112.74a127.577 127.577 0 0 1-24.09 7.91c-3.75.83-7.45-1.06-10.49-3.08-4.31-3-8.56-6-12.6-9.33a36.424 36.424 0 0 1 1.67 16.63c-1.5 12.08-4.31 24-5.63 36.1 10.51 4.11 9.11 23.73-2.71 25-7.71 1-15.54.28-23.27 1.1-10.87 1.4-21.89.38-32.76 1.72-9.88 1-19.88.25-29.75 1.25l-1.47 1-.84-1.72a9.905 9.905 0 0 1-3.42 1.53c-3.59 7.76-12.81 9.67-20.55 8.52-2.59-1.24-5.46-2.33-7.16-4.77-3.17-4.26-3-9.87-3.52-14.9-2.4-22.48-4.53-45-6.93-67.43a168.579 168.579 0 0 1-19.76 12.4c-5.66 2.83-11.38 6.35-17.92 6.44-4.28-1.88-8.19-5.79-8-10.76-.31-5.35 4-9.17 8.08-11.88 34.07-23.39 64.53-52.7 86.45-87.9 2.87-4.33 5.54-9.51 10.77-11.34 10.19-4.46 24.13 5.5 20.62 16.94 13.4 15.21 29.76 27.49 46 39.56A408.226 408.226 0 0 0 884 537c3.75 2 7.74 4.11 10.25 7.71 1.33 3.69-2.73 5.61-5.45 6.86ZM810.2 566c-3.51-2-7.39-.83-11.15-.57-19.79.73-39.45 3.33-59.28 3.52-.79 11.53 1.8 23.07 2.4 34.6 3.9-.1 7.83-.07 11.73-.49 10-1.63 20.14-.32 30.13-1.86 7.58-.76 15.22-.45 22.83-.9 1.47-8.82 2.39-17.72 3.58-26.59.49-2.556.408-5.189-.24-7.71Zm20.08-27.85a447.76 447.76 0 0 1-54.58-50.4c-2.46-2.78-4.24 1.47-5.65 3.13a296.885 296.885 0 0 1-48.49 48.29c4.56.61 9.29 1.48 12.84 4.64 11.76-1 23.58-1.24 35.31-2.57 20.23-.41 40.29-3.51 60.57-3.06v-.03ZM417.86 508c5 4.38 10.13 10.31 17.44 9.75 10.48 0 18.1-12.62 13.65-22-3.16-6.93-10.83-9.89-17-13.61-8.64-4.26-18-9.89-28-7.79-6.74 2.85-8.94 12.68-3.8 18 5.45 5.74 12.02 10.23 17.71 15.65ZM450 536.77c-3.64 0-7.92-1-10.87 1.74-5 3.58-7.13 9.55-9.58 14.92-7 16.27-15.66 31.74-24.45 47.09-3.71 6-5.14 14.83.57 20.11 6.53 7.41 19.82 6.93 25.31-1.5 11.24-17 18.4-36.33 24.67-55.62 1.92-6.32 5-13.26 2.15-19.8-1.34-3.46-4.75-5.31-7.8-6.94Zm-193.91 42.6c-.71 3.23-3.75 5.07-5.79 7.46-14.2 14.84-28.47 29.64-41.7 45.37-5.52 6.79-8.08 17.55-17.74 19.68-9.66 2.13-19.85 1.32-29.51-.6-3.81-.8-8-2.62-9.72-6.38-.68-5.42 2.55-10.28 5.2-14.74 8.92-13.2 19.28-25.34 29.73-37.33 10.61-11.7 23.61-20.89 34.59-32.22 11.92-11.82 23.65-23.84 35.42-35.84 8.22-9.17 17.48-17.49 24.74-27.52a7.125 7.125 0 0 0 .64-6.56c-.44-1.32-2.55-2.3-2.55-2.3-8.29-3.31-15.34-9-22.91-13.66-6.68-4.29-14.19-10-14.32-18.75a9.231 9.231 0 0 1 7.64-10.53c10.54-1.12 21 1.1 31.46 1.6h14.81a33.147 33.147 0 0 1 4.8 0h.05c2.102.152 4.158.684 6.07 1.57 13.48 5.77 21.54 18.72 29.38 30.4 4.38 6.28 2.87 14.8-1.73 20.51-9.88 13.24-23.2 23.35-34.67 35.11-10 10.55-19.81 21.34-30.33 31.37 14-1.56 29.33 2.67 38.68 13.59 8.16 9.68 14 21 21 31.52 5.92 8.93 14.38 15.79 20.24 24.74 2.37 3.59 3.43 8.3 1.82 12.4-1.72 2.54-4.8 3.71-7.68 4.32-7 .81-14 .32-21 .06l-.95-.67c-11.35.79-19.36-8.72-24.07-17.84-10.93-20.43-31.32-34-41.54-54.82"/>
   </g>
   <defs>
      <clipPath id="a">
         <path fill="#fff" d="M0 0h1024v1024H0z"/>
      </clipPath>
   </defs>
</svg>

<svg width="1024" height="1024" viewBox="0 0 1024 1024" fill="none" xmlns="http://www.w3.org/2000/svg">
<g clip-path="url(#clip0_2_2715)">
<path d="M512 1024C794.77 1024 1024 794.77 1024 512C1024 229.23 794.77 0 512 0C229.23 0 0 229.23 0 512C0 794.77 229.23 1024 512 1024Z" fill="#9ABEFF"/>
<path d="M163.54 490.24C161.138 486.816 159.578 482.873 158.989 478.731C158.4 474.59 158.798 470.368 160.15 466.41C162.64 459.34 166.15 452.41 171.41 447.03C179.36 438.98 188.7 432.36 195.9 423.58C207.72 409.49 217.74 394.01 229.52 379.88C235.71 372.22 243.2 365.07 252.99 362.48C256.023 362.305 259.064 362.349 262.09 362.61C263.57 363.1 265.09 363.61 266.57 363.99C273.06 367.38 275.23 375.1 275.05 381.92C274.47 391.62 270.25 400.6 266.05 409.19C258.8 423.9 247.1 435.68 235.71 447.19C228.13 454.82 218.29 459.84 210.97 467.72C206.97 471.99 209.21 478.45 212.43 482.42C220.71 487.57 230.88 490.42 237.04 498.42C241.26 504.06 244.96 510.31 246.7 517.17C248.4 524.58 242.06 530.59 235.99 533.54C227.19 536.84 217.48 535.1 208.57 533.1C203.14 531.86 199.57 527.27 195.57 523.72C184.13 513.41 172.51 502.93 163.54 490.24ZM640 543.33C638 545.58 635.88 547.89 633 549.01C622.17 553.75 609.74 558.82 598 553.94C599.09 558 600 562.23 599.32 566.46C597.92 577.71 595.87 588.86 594.32 600.1C605.32 603.01 605.69 621.03 595.47 625.21C581.27 625.91 567.12 627.13 552.89 627.1C543.2 628.26 533.43 628.22 523.68 628.5C521.76 636.92 512.37 639.5 504.8 638.2C502.19 636.98 499.3 635.9 497.67 633.39C495.01 629.52 495.33 624.61 494.67 620.18C492.81 599.83 490.77 579.49 488.89 559.18C488.762 556.925 489.103 554.667 489.89 552.55C482.72 556.75 474.55 561.84 465.89 559.94C458.58 556.67 457.94 545.18 465.31 541.51C485.916 529.856 505.052 515.775 522.31 499.57C523.31 498.28 526.31 496.71 524.45 494.9C518.003 488.167 511.89 481.143 506.11 473.83L504.03 474.09C495.75 481.85 487.9 490.91 477.03 495.09C470.61 498.19 462.14 492.17 463.16 485.09C463.47 479.17 469.08 475.86 472.62 471.82C487.19 457.37 499.11 440.4 508.95 422.46C511.89 416.86 514.51 409.54 521.52 408.13C524.77 406.87 528.05 408.32 531.24 409.05C534.24 410.98 537.6 413.05 538.74 416.68C539.35 419.28 539.12 421.97 539.12 424.68C545.63 422.86 552.44 423.81 559.06 422.78C566.18 421.65 573.44 421.99 580.57 420.78C587.67 420.94 597.18 421.78 600.09 429.56C602.58 437.69 598.52 445.77 594.81 452.81C585.81 468.81 574.54 483.4 562.27 496.98C581 512.06 602.37 523.57 624.27 533.21C630 535.85 636.94 537.29 640 543.33ZM541.39 479.26C549.101 471.79 555.855 463.392 561.5 454.26C562.37 452.05 565.33 448.46 561.92 447.03C549.27 447.66 536.61 449.66 523.92 449.97C522.09 452.44 520.3 454.97 518.56 457.47C525.79 465 533.06 472.8 541.38 479.26H541.39ZM563.32 568.89C555.16 570.47 546.79 569.72 538.61 571.11C532.42 571.75 526.2 571.69 520 571.9C519.08 582.48 521.48 593.05 521.78 603.64C536.7 603.54 551.51 601.69 566.44 601.64C567.62 592.83 568.44 583.96 569.35 575.12C570 571.52 567.1 568 563.31 568.88L563.32 568.89ZM582.68 543.55C582.11 543.24 580.95 542.62 580.38 542.3C568.33 533.17 556.08 524.3 544.51 514.55C531.701 525.953 517.846 536.125 503.13 544.93C506.7 545.51 510.29 546.25 513.4 548.19C536.49 546.64 559.53 544.29 582.67 543.55H582.68ZM801.39 436.15C812.39 446.92 822.86 458.26 833.15 469.72C837.37 474.79 844.15 475.13 850.24 474.02C855.45 471.16 860.67 466.68 861.24 460.35C862.07 453.81 858.45 447.69 853.7 443.5C842.13 433 829.31 424 816.24 415.44C812.24 413 808.24 409.74 803.24 410C796.98 409.42 791.96 415.29 791.52 421.15C791.86 427.61 797.23 431.88 801.39 436.15ZM682.68 485.8C691.68 487.86 699.1 481.15 705.97 476.45C718.18 466.52 729.9 455.75 739.66 443.36C743.53 437.85 748.49 431.28 746.17 424.17C743.43 414.89 732.34 410.17 723.5 413.6C719.12 415.6 716.5 419.78 714 423.66C705.851 436.051 696.647 447.714 686.49 458.52C682.66 462.92 678.19 467.04 676 472.52C674.05 477.92 677.56 483.93 682.68 485.8ZM413 438.83C420 444.83 427.13 450.72 433.9 456.99C439.79 462.83 450.9 463.43 456.4 456.83C463.04 450.23 462.31 437.64 453.97 432.73C442.36 425.73 429.97 417.55 415.97 417.61C412.26 419.53 408.64 422.49 407.97 426.84C406.92 431.5 409.48 436 413 438.83ZM888.8 551.57C881.052 555 872.983 557.65 864.71 559.48C860.96 560.31 857.26 558.42 854.22 556.4C849.91 553.4 845.66 550.4 841.62 547.07C843.458 552.409 844.03 558.102 843.29 563.7C841.79 575.78 838.98 587.7 837.66 599.8C848.17 603.91 846.77 623.53 834.95 624.8C827.24 625.8 819.41 625.08 811.68 625.9C800.81 627.3 789.79 626.28 778.92 627.62C769.04 628.62 759.04 627.87 749.17 628.87L747.7 629.87L746.86 628.15C745.828 628.873 744.667 629.392 743.44 629.68C739.85 637.44 730.63 639.35 722.89 638.2C720.3 636.96 717.43 635.87 715.73 633.43C712.56 629.17 712.73 623.56 712.21 618.53C709.81 596.05 707.68 573.53 705.28 551.1C698.987 555.685 692.385 559.828 685.52 563.5C679.86 566.33 674.14 569.85 667.6 569.94C663.32 568.06 659.41 564.15 659.6 559.18C659.29 553.83 663.6 550.01 667.68 547.3C701.75 523.91 732.21 494.6 754.13 459.4C757 455.07 759.67 449.89 764.9 448.06C775.09 443.6 789.03 453.56 785.52 465C798.92 480.21 815.28 492.49 831.52 504.56C848.17 516.682 865.714 527.526 884 537C887.75 539 891.74 541.11 894.25 544.71C895.58 548.4 891.52 550.32 888.8 551.57ZM810.2 566C806.69 564 802.81 565.17 799.05 565.43C779.26 566.16 759.6 568.76 739.77 568.95C738.98 580.48 741.57 592.02 742.17 603.55C746.07 603.45 750 603.48 753.9 603.06C763.9 601.43 774.04 602.74 784.03 601.2C791.61 600.44 799.25 600.75 806.86 600.3C808.33 591.48 809.25 582.58 810.44 573.71C810.93 571.154 810.848 568.521 810.2 566ZM830.28 538.15C810.722 522.891 792.466 506.033 775.7 487.75C773.24 484.97 771.46 489.22 770.05 490.88C755.802 508.792 739.531 524.996 721.56 539.17C726.12 539.78 730.85 540.65 734.4 543.81C746.16 542.81 757.98 542.57 769.71 541.24C789.94 540.83 810 537.73 830.28 538.18V538.15ZM417.86 508C422.86 512.38 427.99 518.31 435.3 517.75C445.78 517.75 453.4 505.13 448.95 495.75C445.79 488.82 438.12 485.86 431.95 482.14C423.31 477.88 413.95 472.25 403.95 474.35C397.21 477.2 395.01 487.03 400.15 492.35C405.6 498.09 412.17 502.58 417.86 508ZM450 536.77C446.36 536.77 442.08 535.77 439.13 538.51C434.13 542.09 432 548.06 429.55 553.43C422.55 569.7 413.89 585.17 405.1 600.52C401.39 606.52 399.96 615.35 405.67 620.63C412.2 628.04 425.49 627.56 430.98 619.13C442.22 602.13 449.38 582.8 455.65 563.51C457.57 557.19 460.65 550.25 457.8 543.71C456.46 540.25 453.05 538.4 450 536.77ZM256.09 579.37C255.38 582.6 252.34 584.44 250.3 586.83C236.1 601.67 221.83 616.47 208.6 632.2C203.08 638.99 200.52 649.75 190.86 651.88C181.2 654.01 171.01 653.2 161.35 651.28C157.54 650.48 153.35 648.66 151.63 644.9C150.95 639.48 154.18 634.62 156.83 630.16C165.75 616.96 176.11 604.82 186.56 592.83C197.17 581.13 210.17 571.94 221.15 560.61C233.07 548.79 244.8 536.77 256.57 524.77C264.79 515.6 274.05 507.28 281.31 497.25C281.937 496.289 282.323 495.191 282.435 494.049C282.546 492.906 282.38 491.754 281.95 490.69C281.51 489.37 279.4 488.39 279.4 488.39C271.11 485.08 264.06 479.39 256.49 474.73C249.81 470.44 242.3 464.73 242.17 455.98C241.795 453.572 242.388 451.113 243.819 449.14C245.251 447.168 247.404 445.841 249.81 445.45C260.35 444.33 270.81 446.55 281.27 447.05H296.08C297.678 446.934 299.282 446.934 300.88 447.05H300.93C303.032 447.202 305.088 447.734 307 448.62C320.48 454.39 328.54 467.34 336.38 479.02C340.76 485.3 339.25 493.82 334.65 499.53C324.77 512.77 311.45 522.88 299.98 534.64C289.98 545.19 280.17 555.98 269.65 566.01C283.65 564.45 298.98 568.68 308.33 579.6C316.49 589.28 322.33 600.6 329.33 611.12C335.25 620.05 343.71 626.91 349.57 635.86C351.94 639.45 353 644.16 351.39 648.26C349.67 650.8 346.59 651.97 343.71 652.58C336.71 653.39 329.71 652.9 322.71 652.64L321.76 651.97C310.41 652.76 302.4 643.25 297.69 634.13C286.76 613.7 266.37 600.13 256.15 579.31" fill="white"/>
</g>
<defs>
<clipPath id="clip0_2_2715">
<rect width="1024" height="1024" fill="white"/>
</clipPath>
</defs>
</svg>
